img/Icon-2.svg

<svg width="40" height="40" viewBox="0 0 40 40" fill="none" xmlns="http://www.w3.org/2000/svg">
<rect opacity="0.1" width="40" height="40" rx="20" fill="#5A7184"/>
<path d="M20.3333 16.7395C18.3333 16.7395 16.7396 18.3645 16.7396 20.3333C16.7396 22.3333 18.3333 23.927 20.3333 23.927C22.3021 23.927 23.9271 22.3333 23.9271 20.3333C23.9271 18.3645 22.3021 16.7395 20.3333 16.7395ZM20.3333 22.677C19.0521 22.677 17.9896 21.6458 17.9896 20.3333C17.9896 19.052 19.0208 18.0208 20.3333 18.0208C21.6146 18.0208 22.6458 19.052 22.6458 20.3333C22.6458 21.6458 21.6146 22.677 20.3333 22.677ZM24.8958 16.6145C24.8958 16.1458 24.5208 15.7708 24.0521 15.7708C23.5833 15.7708 23.2083 16.1458 23.2083 16.6145C23.2083 17.0833 23.5833 17.4583 24.0521 17.4583C24.5208 17.4583 24.8958 17.0833 24.8958 16.6145ZM27.2708 17.4583C27.2083 16.3333 26.9583 15.3333 26.1458 14.5208C25.3333 13.7083 24.3333 13.4583 23.2083 13.3958C22.0521 13.3333 18.5833 13.3333 17.4271 13.3958C16.3021 13.4583 15.3333 13.7083 14.4896 14.5208C13.6771 15.3333 13.4271 16.3333 13.3646 17.4583C13.3021 18.6145 13.3021 22.0833 13.3646 23.2395C13.4271 24.3645 13.6771 25.3333 14.4896 26.177C15.3333 26.9895 16.3021 27.2395 17.4271 27.302C18.5833 27.3645 22.0521 27.3645 23.2083 27.302C24.3333 27.2395 25.3333 26.9895 26.1458 26.177C26.9583 25.3333 27.2083 24.3645 27.2708 23.2395C27.3333 22.0833 27.3333 18.6145 27.2708 17.4583ZM25.7708 24.4583C25.5521 25.0833 25.0521 25.552 24.4583 25.802C23.5208 26.177 21.3333 26.0833 20.3333 26.0833C19.3021 26.0833 17.1146 26.177 16.2083 25.802C15.5833 25.552 15.1146 25.0833 14.8646 24.4583C14.4896 23.552 14.5833 21.3645 14.5833 20.3333C14.5833 19.3333 14.4896 17.1458 14.8646 16.2083C15.1146 15.6145 15.5833 15.1458 16.2083 14.8958C17.1146 14.5208 19.3021 14.6145 20.3333 14.6145C21.3333 14.6145 23.5208 14.5208 24.4583 14.8958C25.0521 15.1145 25.5208 15.6145 25.7708 16.2083C26.1458 17.1458 26.0521 19.3333 26.0521 20.3333C26.0521 21.3645 26.1458 23.552 25.7708 24.4583Z" fill="#5A7184"/>
</svg>

<svg width="40" height="40" fill="none" xmlns="http://www.w3.org/2000/svg"><rect opacity=".1" width="40" height="40" rx="20" fill="#5A7184"/><path d="M20.333 16.74c-2 0-3.593 1.625-3.593 3.593 0 2 1.593 3.594 3.593 3.594a3.594 3.594 0 0 0 3.594-3.594c0-1.968-1.625-3.593-3.594-3.593zm0 5.937a2.34 2.34 0 0 1-2.343-2.344c0-1.281 1.03-2.312 2.343-2.312a2.307 2.307 0 0 1 2.313 2.312c0 1.313-1.031 2.344-2.313 2.344zm4.563-6.063a.84.84 0 0 0-.844-.843.84.84 0 0 0-.844.843.84.84 0 0 0 .844.844.84.84 0 0 0 .844-.843zm2.375.844c-.063-1.125-.313-2.125-1.125-2.937-.813-.813-1.813-1.063-2.938-1.125-1.156-.063-4.625-.063-5.78 0-1.126.062-2.095.312-2.938 1.125-.813.812-1.063 1.812-1.125 2.937-.063 1.157-.063 4.625 0 5.782.062 1.125.312 2.093 1.125 2.937.843.813 1.812 1.063 2.937 1.125 1.156.063 4.625.063 5.781 0 1.125-.063 2.125-.313 2.938-1.125.812-.844 1.062-1.813 1.125-2.938.062-1.156.062-4.625 0-5.78zm-1.5 7c-.219.625-.719 1.094-1.313 1.344-.937.375-3.125.281-4.125.281-1.03 0-3.218.094-4.125-.281a2.37 2.37 0 0 1-1.343-1.344c-.375-.906-.282-3.093-.282-4.125 0-1-.093-3.187.282-4.125a2.41 2.41 0 0 1 1.343-1.312c.907-.375 3.094-.282 4.125-.282 1 0 3.188-.093 4.125.282.594.218 1.063.718 1.313 1.312.375.938.281 3.125.281 4.125 0 1.032.094 3.219-.281 4.125z" fill="#5A7184"/></svg>
